X:1
T:Banish Misfortune
L:1/8
Q:1/4=160
M:6/8
K:G
 D z D4 | D z D4 | D z D4 | D z D4 |
 A z A4 | E z E4 | D z D4 | d z d4 ::
D z D4 | D z D4 | A z A4 | A z A4 |
 D z D4 | C6 | A6 | D z D4 ::
 z2 D4 | z2 D4 | z2 D4 |z2 D4 |
 z6 | z6 | z6 | z6 :|
